X:1
T:Belle Starr
M:3/4
L:1/4
K:F
 C| F2 F| A2 C/2C/2| D D D| G2 C| C E F| G A G| G F3/2 E/2| F2 C/2C/2|\
 F F F| A2 C| D D D| G2 C/2C/2| C3/2 E/2G/2 G/2| A/2 A3/2 G| F3-| F2|\
 c| c c c| c A F| G G G| D2 G| G G G/2G/2| A A G| G F3/2 D/2| C2 c|\
 c c c| d cA/2-F/2| G G G/2G/2| D2 F| E E3/2 D/2| C D E| F3-| F2||\
